X:1
T:Amor da te conosco
T:Amor da te conosco
T:Girolamo Scotto
T:Source : Madrigali a tre voci---Venetia---G.Scotto---1541. Editor : André Vierendeels (15/06/16).
T:Notes : Original clefs: C3? C4, F4 Editorial accidentals above the staff Original note values have been halved Square brackets indicate ligatures Text by Pietro Bembo (Rime) m 34 in B: quarter "F" no dotted in original print "Septimi toni"    
T:©
T:©
T:©
T:©
T:©
C:Girolamo Scotto
Z:©
%%score [ 1 2 3 ]
L:1/8
Q:1/4=90
M:2/2
K:F
V:1 treble-8 nm="Tenor 1" snm="T 1"
V:2 treble-8 nm="Tenor 2" snm="T 2"
V:3 bass nm="Bass" snm="B"
V:1
 F8 | F6 F2 | F2 F2 B4 | A2 c4 c2 | d2 c4 B2 | c2 d4 cB | A2 c2 c2 c2 | f6 e2 | g4 f2 c2 | %9
w: A-|mor, da|te co- nos-|co quel ch'io|so- * *||no, tu pri- mo|mi le-|va- sti, tu|
 c2 c2 f4 | _e2 d2 d4- | d4 c4 | z2 d2 d2 d2 | e2 f4 d2 |"^b""^b" f3 e/d/ e2 f2 | g4 z2 f2 | %16
w: pri- mo mi|le- va- *|* sti,|da ter- ra|e'n ciel al-|za- * * * *|sti, et|
 f2 f2 e2 d2 | c2 c2 f4 | _e4 d4- | d4 c4- | c4 z2 d2 | e2 e2 f2 a2- | ag g3 f f2- | f2 e2 f4- | %24
w: al mio dir do-|na- sti'un dol-|ce suo-|* no,|_ do-|na- sti'un dol- ce|_ _ suo- * *|* * no,|
 f8 | z2 g2 g2 g2 | d2 d2 f2 f2 | c2 c2 f2 e2 | d4 z2 d2 | f2 f2 e2 e2 | f4 c2 c2 | c2 c2 c2 d2- | %32
w: _|e tu co-|lei di cui sem-|pre ra- rio- *|no, a|gli'oc- chi miei mo-|stra- sti, et|den- tro'al cor man-|
 d2 cB A4- | A4 z2 c2 | c2 c2 d3 e | f2 e2 f3 e | d4 c4- | c4 z2 d2 | d2 c2 B2 d2- | d2 cB A2 c2- | %40
w: * da- * sti,|_ pen-|sier leg- gia- *|* dri'et ca- *|* sti,|_ pen-|sier leg- gia- dri'et|_ _ _ ca- *|
 c2 B2 cBAG | F2 c2 c2 A2- | AB c3 B/A/ B2 | c2 G2 G2 A2 | B4 A2 c2- | c2 B2 cBAG | F2 c2 c2 A2- | %47
w: |sti, al- tie- ro|_ _ do- * * *|no, al- tie- ro|do- * *||no, al- tie- ro|
 AB c3 B/A/ B2 | c2 G2 G2 A2 | B4 A2 c2- |"^-natural" c2 B2 c4- | c8 |] %52
w: _ _ do- * * *|no, al- tie- ro|do- * *|* * no.|_|
V:2
 C8 | D6 C2 | D6 E2 | F6 E2 | F3 E D2 D2 | C2 F4 E2 | F2 F4 A2- | A2 A2 A2 G2 | E2 G2 A4- | %9
w: A-|mor, da|te co-|nos- co|quel _ _ ch'io|so- * *|no, tu pri-|* mo mi le-|va- * sti,|
 A2 G2 A2 B2 | c2 B4 A2 | G2 B4 A2 | B2 F2 F2 F2 | G2 A2 B4 | d4 G2 B2- | B2 AG B2 A2- | %16
w: _ tu pri- mo|mi le- va-||sti, da ter- ra|e'n ciel al-|za- * *||
 AGAB c2 BA | G2 A2 A2 B2 | c2 G2 B4 | A2 A4 A2- | AB c4 B2 | c8 | z2 c2 d2 d2 | G4 A2 c2 | %24
w: |sti, et al mio|dir do- na-|sti'un dol- ce-|* * suo- *|no,|un dol- ce|suo- no, et|
 c2 c2 B2 A2 | G2 G2 c2 c2 | B4 A4 | z2 A2 A2 G2 | B6 B2 | A6 G2 | F2 B2 A4 | G4 F2 F2- | %32
w: tu co- lei di|cui sem- pre ra-|gio- no,|a gli'oc- chi|miei mo-|stra- *|sti, et den-|tro'al cor man-|
 F2 E2 F2 C2 | C2 C2 F4- | F2 E2 F3 E | D2 G2 A2 D2 | F2 G2 E2 FG | ABcA B3 A | GF E2 D2 F2- | %39
w: * da- sti, pen-|sier leg- gia|_ dri'et ca- *|sti, pen- sier leg-|gia- dri'et ca- * *|||
 F2 E2 F3 E | D4 C4 | z4 z2 D2 | D2 C2 F4 | E4 D2 C2 | D2 E2 F3 E | D4 C4 | z4 z2 D2 | D2 C2 F4 | %48
w: |* sti,|al-|tie- ro do-|* no, al-|tie- ro do- *|* no,|al-|tie- ro do-|
 E4 D2 C2 | D2 E2 F3 E | D4 C4- | C8 |] %52
w: * no, al-|tie- ro do- *|* no.|_|
V:3
 F,,8 | B,,6 A,,2 | B,,3 A,, G,,2 G,,2 | F,,3 G,, A,,B,, C,2 | B,,2 F,,2 G,,2 G,,2 | %5
w: A-|mor, da|te _ _ co-|nos- * * * *|co, co- nos- co|
 A,,2 B,,2 G,,4 | F,,8- | F,,4 z2 C,2 | C,2 C,2 F,4- | F,2 _E,2 D,4 | C,2 G,2 G,2 F,2 | %11
w: quel ch'io so-|no,|_ tu|pri- mo mi|_ le- va-|sti, tu pri- mo|
 G,2 D,2 F,4 | B,,8 | z4 z2 B,,2 | B,,2 B,,2 C,2 D,2 | _E,4 D,3 E, |"^-natural" F,2 D,2 A,2 D,2 | %17
w: mi le- va-|sti,|da|ter- ra e'n ciel|al za- *|sti, da ter- ra|
 E,2 F,4 E,D, |"^b" C,4 G,,4 | D,4 F,4 | F,2 F,2 D,2 D,2 | C,4 F,4 | _E,4 D,4 | C,4 F,,4- | %24
w: e'n ciel al- *|za- sti,|et al|mio dir do- na-|sti'un dol-|ce suo-|* no,|
 F,,4 z2 F,2 | _E,2 E,2 C,2 C,2 | G,2 G,2 D,2 D,2 | F,4 F,,2 C,2 | G,,2 G,,2 B,,2 B,,2 | %29
w: _ et|tu co- lei di|cui sem- pre ra-|gio- no, a|gli'oc- ch miei mo-|
 F,,3 G,, A,,B,, C,2 | D,3 E, F,2 F,,2 | C,2 C,2 A,,2 B,,2 | G,,4 F,,4- | F,,4 F,,3 G,, | %34
w: stra- * * * *|* * sti, et|den- tro'al cor man-|da- sti,|_ [man- *|
 A,,B,, C,2 B,,4- | B,,2 C,2 F,,2 B,,2- | B,,2 A,,G,, A,,2 F,,2 | F,,2 F,,2 G,,4- | %38
w: * * * da-|* sti,] man- da-|* * * sti, pen-|sier leg- gia-|
 G,,2 A,,2 B,,3 A,, | G,,4 F,,4 | G,,4 z2 C,2 | D,2 E,2 F,4- | F,2 E,2 D,4 | C,3 C, B,,2 A,,2 | %44
w: * * dri'et _|ca- sti,|_ al-|tie- ro do-||no, al- tie- ro|
 G,,4 F,,4 | G,,4 z2 C,2 | D,2 E,2 F,4- | F,2 E,2 D,4 | C,3 C, B,,2 A,,2 | G,,4 F,,4 | G,,4 C,4- | %51
w: do- *|no, al-|tie- ro do-||no, al- tie- ro|do- *|* no.|
 C,8 |] %52
w: _|

